source/icons/clock.svg

<svg width="61" height="60" viewBox="0 0 61 60" fill="none" xmlns="http://www.w3.org/2000/svg">
<rect x="0.5" width="60" height="60" fill="#68B738"/>
<path d="M23.538 15C22.475 15 22.475 16.5831 23.538 16.5831H30.1815V18.1873C23.3786 18.62 18 24.4142 18 31.4854C18 35.4959 19.7432 39.1159 22.4963 41.5539C22.9746 41.976 23.0384 42.7254 22.6026 43.1897L21.0719 44.7412C20.3279 45.4272 21.4333 46.4931 22.103 45.7438L24.1014 43.7069C24.4521 43.3692 24.973 43.2847 25.4088 43.4958C27.1274 44.3397 29.0169 44.784 30.9341 44.795C32.8513 44.8059 34.7459 44.3833 36.4742 43.5591C36.8993 43.348 37.4308 43.4325 37.771 43.7702L39.7055 45.7438C40.3858 46.377 41.3638 45.4272 40.7472 44.7412L39.3016 43.2636C38.8552 42.8098 38.919 42.0605 39.4079 41.6277C40.8584 40.3585 42.0186 38.7959 42.8106 37.0447C43.6026 35.2936 44.0081 33.3944 43.9999 31.4748C43.9999 24.4036 38.5894 18.5989 31.7759 18.1873V16.5831H38.4194C39.4823 16.5831 39.4823 15 38.4194 15H23.538ZM19.435 31.4748C19.435 24.9419 24.6116 19.6543 30.9999 19.6543C37.3777 19.6543 42.5543 24.9419 42.5543 31.4748C42.5543 38.0183 37.3777 43.3164 30.9999 43.3164C24.6222 43.3164 19.435 38.0183 19.435 31.4748ZM30.1921 23.3799C30.1921 22.2823 31.8503 22.2823 31.8503 23.3799V32.0131C31.8503 32.237 31.7607 32.4517 31.6012 32.6101C31.4418 32.7684 31.2255 32.8574 30.9999 32.8574C30.7875 32.8574 30.5836 32.7743 30.4324 32.6262C30.2812 32.478 30.1949 32.2767 30.1921 32.0658V23.3799ZM25.2175 25.9973C25.5247 25.9973 25.8194 25.8761 26.0367 25.6603C26.254 25.4446 26.3761 25.152 26.3761 24.8469C26.3761 24.5418 26.254 24.2492 26.0367 24.0334C25.8194 23.8177 25.5247 23.6965 25.2175 23.6965C24.9307 23.7239 24.6645 23.8563 24.4707 24.0681C24.277 24.2798 24.1697 24.5556 24.1697 24.8416C24.1697 25.1277 24.277 25.4034 24.4707 25.6152C24.6645 25.8269 24.9307 25.9593 25.2175 25.9867V25.9973ZM36.7718 25.9973C37.0791 25.9973 37.3738 25.8761 37.5911 25.6603C37.8083 25.4446 37.9304 25.152 37.9304 24.8469C37.9304 24.5418 37.8083 24.2492 37.5911 24.0334C37.3738 23.8177 37.0791 23.6965 36.7718 23.6965C36.485 23.7239 36.2188 23.8563 36.0251 24.0681C35.8313 24.2798 35.724 24.5556 35.724 24.8416C35.724 25.1277 35.8313 25.4034 36.0251 25.6152C36.2188 25.8269 36.485 25.9593 36.7718 25.9867V25.9973ZM26.3761 38.5882C26.3761 40.1185 24.0588 40.1185 24.0588 38.5882C24.0588 37.0579 26.3761 37.0579 26.3761 38.5882ZM30.9999 42.0288C31.1607 42.0441 31.3229 42.0259 31.4762 41.9754C31.6294 41.9248 31.7703 41.843 31.8899 41.7352C32.0094 41.6273 32.1049 41.4959 32.1703 41.3493C32.2356 41.2026 32.2694 41.044 32.2694 40.8837C32.2694 40.7233 32.2356 40.5648 32.1703 40.4181C32.1049 40.2715 32.0094 40.14 31.8899 40.0322C31.7703 39.9244 31.6294 39.8426 31.4762 39.792C31.3229 39.7414 31.1607 39.7232 30.9999 39.7386C30.7132 39.7659 30.4469 39.8984 30.2532 40.1101C30.0595 40.3219 29.9522 40.5976 29.9522 40.8837C29.9522 41.1697 30.0595 41.4455 30.2532 41.6572C30.4469 41.869 30.7132 42.0014 30.9999 42.0288ZM22.9109 31.6437C22.9263 31.8033 22.908 31.9643 22.857 32.1165C22.8061 32.2687 22.7237 32.4086 22.6151 32.5273C22.5065 32.646 22.3741 32.7408 22.2264 32.8057C22.0788 32.8706 21.919 32.9041 21.7575 32.9041C21.596 32.9041 21.4363 32.8706 21.2886 32.8057C21.141 32.7408 21.0086 32.646 20.9 32.5273C20.7914 32.4086 20.709 32.2687 20.658 32.1165C20.6071 31.9643 20.5888 31.8033 20.6042 31.6437C20.6318 31.3589 20.7652 31.0946 20.9785 30.9023C21.1917 30.7099 21.4695 30.6033 21.7575 30.6033C22.0456 30.6033 22.3234 30.7099 22.5366 30.9023C22.7499 31.0946 22.8833 31.3589 22.9109 31.6437ZM40.237 32.794C40.3978 32.8094 40.56 32.7912 40.7132 32.7406C40.8665 32.6901 41.0074 32.6082 41.127 32.5004C41.2465 32.3926 41.342 32.2611 41.4074 32.1145C41.4727 31.9679 41.5065 31.8093 41.5065 31.6489C41.5065 31.4886 41.4727 31.33 41.4074 31.1834C41.342 31.0367 41.2465 30.9053 41.127 30.7975C41.0074 30.6896 40.8665 30.6078 40.7132 30.5573C40.56 30.5067 40.3978 30.4885 40.237 30.5038C39.9502 30.5312 39.684 30.6637 39.4903 30.8754C39.2966 31.0871 39.1892 31.3629 39.1892 31.6489C39.1892 31.935 39.2966 32.2108 39.4903 32.4225C39.684 32.6342 39.9502 32.7667 40.237 32.794ZM37.9304 38.5987C37.9304 40.1185 35.6132 40.1185 35.6132 38.5882C35.6132 37.0579 37.9304 37.0579 37.9304 38.5882V38.5987Z" fill="white"/>
</svg>

<svg fill="none" xmlns="http://www.w3.org/2000/svg" viewBox="0 0 61 60"><path fill="#68B738" d="M.5 0h60v60H.5z"/><path d="M23.54 15c-1.06 0-1.06 1.58 0 1.58h6.64v1.6c-6.8.44-12.18 6.23-12.18 13.3 0 4.02 1.74 7.64 4.5 10.07.47.43.54 1.18.1 1.64l-1.53 1.55c-.74.69.36 1.75 1.03 1l2-2.03c.35-.34.87-.43 1.3-.21a12.7 12.7 0 0 0 11.07.06c.43-.21.96-.13 1.3.21l1.94 1.97c.68.64 1.65-.31 1.04-1l-1.45-1.48c-.44-.45-.38-1.2.1-1.63A13.46 13.46 0 0 0 44 31.47c0-7.07-5.41-12.87-12.22-13.28v-1.6h6.64c1.06 0 1.06-1.59 0-1.59H23.54Zm-4.1 16.47A11.7 11.7 0 0 1 31 19.65c6.38 0 11.55 5.3 11.55 11.82 0 6.55-5.17 11.85-11.55 11.85-6.38 0-11.57-5.3-11.57-11.85Zm10.75-8.09c0-1.1 1.66-1.1 1.66 0v8.63a.84.84 0 0 1-.85.85.81.81 0 0 1-.8-.8v-8.68ZM25.22 26a1.16 1.16 0 0 0 1.16-1.15 1.15 1.15 0 0 0-1.16-1.15 1.16 1.16 0 0 0-1.05 1.14A1.15 1.15 0 0 0 25.22 26Zm11.55 0a1.16 1.16 0 0 0 1.16-1.15 1.15 1.15 0 0 0-1.16-1.15 1.16 1.16 0 0 0-1.05 1.14A1.15 1.15 0 0 0 36.77 26Zm-10.4 12.59c0 1.53-2.31 1.53-2.31 0s2.32-1.53 2.32 0ZM31 42.03a1.17 1.17 0 0 0 1.17-.68 1.14 1.14 0 0 0-.7-1.56 1.17 1.17 0 0 0-1.22.32 1.15 1.15 0 0 0 .75 1.92Zm-8.09-10.39a1.14 1.14 0 0 1-.68 1.17 1.17 1.17 0 0 1-1.57-.7 1.14 1.14 0 0 1 .32-1.2 1.16 1.16 0 0 1 1.93.73Zm17.33 1.15a1.16 1.16 0 0 0 1.17-.68 1.14 1.14 0 0 0-.7-1.55 1.17 1.17 0 0 0-1.22.32 1.15 1.15 0 0 0 .75 1.91Zm-2.31 5.8c0 1.53-2.32 1.53-2.32 0s2.32-1.53 2.32 0Z" fill="#fff"/></svg>
